X:1
T: Salt of the Earth
N:
C:Orly Krasner
S:
A:
O:
R:
M:3/4
K:Am
I:speed 150
%W: A1
% voice 1 (1 lines, 35 notes)
K:Am
M:3/4
L:1/16
E4 |E4 A4 A2 B2 |A2 G2 E4 E2 ^F2 |G4 G2 A2 G2 E2 |C2 D2 D2 C2 D2 E2 |D4 A4 c2 B2 |A2 G2 E4 D2 C2 |D4 E4 G4 |A8 E4 |
%W: A2
% voice 1 (1 lines, 34 notes)
E4 A4 A2 B2 |A2 G2 E4 E2 ^F2 |G4 G2 A2 G2 E2 |C2 D2 D2 C2 D2 E2 |D4 A4 c2 B2 |A2 G2 E4 D2 C2 |D4 E4 G4 |A8 A4 |
%W: B1
% voice 1 (1 lines, 37 notes)
A2 B2 c2 d2 e4 |E2 ^F2 G2 A2 B4 |A2 B2 c2 d2 e2 c2 |d4 B4 G4 |A2 B2 c2 d2 e4/3 |f4/3 g4/3 a4/3 |b4/3 c'4/3 a4 |g4 e4 a4 |a2 g2 a8 |a4
%W: B2
% voice 1 (1 lines, 30 notes)
a4 e4 |g4 g4 d4 |e4 c6 e2 |d2 c2 d4 B4 |G4 A2 B2 c2 d2 |e2 g2 a2 c'2 b2 a2 |g2 f2 e6 c2 |d2 B2 A8 |||
